assets/images/ico_bookmark_b_active.svg

<svg width="18" height="23" viewBox="0 0 18 23" fill="none" xmlns="http://www.w3.org/2000/svg">
<path d="M2.8127 0C1.26605 0 0 1.29376 0 2.87486V21.8298C0 22.747 1.06742 23.3222 1.80844 22.8047L8.54512 18.0988C8.82089 17.9061 9.17863 17.9061 9.45488 18.0988L16.1916 22.8047C16.9326 23.3222 18 22.7475 18 21.8298V2.87486C18 1.29376 16.7339 0 15.1873 0H2.8127ZM2.8127 1.14984H15.1873C16.1255 1.14984 16.8747 1.91526 16.8747 2.87486V21.8298C16.8747 21.8884 16.8738 21.8875 16.8265 21.8544L10.0898 17.1486C9.43367 16.6902 8.56585 16.6902 7.91017 17.1486L1.173 21.8544C1.12575 21.8875 1.12479 21.8884 1.12479 21.8298V2.87486C1.12479 1.91526 1.87352 1.14984 2.81221 1.14984H2.8127Z" fill="black"/>
<path d="M4.25 1.1499H1.125V21.8499L5.0625 19.5499L9.25 16.9793L16.875 22.4249L17.4375 1.7249L15.5 1.1499H4.25Z" fill="black"/>
</svg>

<svg xmlns="http://www.w3.org/2000/svg" width="18" height="23" fill="none"><path fill="#000" d="M2.813 0C1.266 0 0 1.294 0 2.875V21.83c0 .917 1.067 1.492 1.808.975l6.737-4.706a.788.788 0 0 1 .91 0l6.737 4.706c.74.517 1.808-.058 1.808-.975V2.875C18 1.294 16.734 0 15.187 0H2.813Zm0 1.15h12.374c.938 0 1.688.765 1.688 1.725V21.83c0 .058-.001.058-.049.024L10.09 17.15a1.9 1.9 0 0 0-2.18 0l-6.737 4.705c-.047.034-.048.034-.048-.024V2.875c0-.96.749-1.725 1.687-1.725Z"/><path fill="#000" d="M4.25 1.15H1.125v20.7l3.938-2.3 4.187-2.57 7.625 5.445.563-20.7L15.5 1.15H4.25Z"/></svg>
